X:22001
T:Vandals of Hammerwich - Lichfield 
R:Rag Morris
C:Trad
Z:Paul Hardy and Mackin I guess, 
M:2/2
L:1/8
K:G
W: Lol rag randomly plays the A part and B part at 2 different speeds. 
W: Morris forumla: A.(AB)4, A dance off probs.
"G"D2 G2 B2 G2|D2 G2 B2 G2|d4 c4 |B4 A4|"G"D2 G2 B2 G2|D2 G2 B2 G2|"D"d2 cB A2 F2|"G"G6 Bc|:
"G"d8 | d8 |"Em"e2 g2 f2 e2|"G"e2 d2 d3 e|"C"d2 c2 c3 c|"G"c2 B2 B3 B|"D"d2 c2 A2 F2|"G"G6 Bc:|